tools/download-figma-icons/icons/action/change.svg

<svg width="24" height="24" viewBox="0 0 24 24" fill="none" xmlns="http://www.w3.org/2000/svg">
<path fill-rule="evenodd" clip-rule="evenodd" d="M16.6948 2.4193L21.2531 5.33985L21.2531 5.3397C21.5638 5.5468 21.7508 5.89951 21.75 6.27246C21.75 6.64459 21.5639 6.97628 21.2531 7.18338L16.6949 10.1039C16.5289 10.2075 16.3218 10.2698 16.1146 10.2698C15.9486 10.2698 15.7625 10.2277 15.5966 10.1452C15.2445 9.95831 15.0373 9.58536 15.0373 9.19219L15.0381 7.43183H8.90487C6.97873 7.43183 5.40375 9.00522 5.40375 10.9314V12.2986C5.40375 12.9612 4.86472 13.5 4.20188 13.5C3.53903 13.5 3 12.9612 3 12.2986V10.9314C3 7.70127 5.63112 5.05015 8.88382 5.05015H15.0171V3.33104C15.0171 2.93705 15.2243 2.56411 15.5763 2.37804C15.9284 2.19115 16.363 2.21219 16.6948 2.4193ZM18.6174 11.7019C18.6174 11.039 19.1564 10.5 19.8193 10.5L19.8192 10.5002C20.4618 10.5002 21 11.0384 21 11.7012V13.069C21 16.3006 18.3689 18.9529 15.1161 18.9529L8.96272 18.9521V20.6719C8.96272 21.0661 8.75552 21.4392 8.40346 21.6254C8.23754 21.7087 8.07163 21.75 7.88548 21.75C7.67829 21.75 7.49132 21.7087 7.30517 21.5841L2.74693 18.6623C2.43615 18.4761 2.25 18.1241 2.25 17.7509C2.25 17.3787 2.43614 17.0468 2.74693 16.8396L7.30517 13.9178C7.65724 13.6904 8.07162 13.6904 8.42368 13.8765C8.77575 14.0635 8.98294 14.4366 8.98294 14.8299V16.57L15.1163 16.5708C17.0424 16.5708 18.6174 14.9967 18.6174 13.0697V11.7019Z" fill="black"/>
</svg>

<svg xmlns="http://www.w3.org/2000/svg" width="24" height="24" fill="none" viewBox="0 0 24 24"><path fill="currentColor" fill-rule="evenodd" d="m16.695 2.42 4.558 2.92c.31.207.498.56.497.932 0 .373-.186.704-.497.911l-4.558 2.92a1.12 1.12 0 0 1-1.098.042 1.07 1.07 0 0 1-.56-.953l.001-1.76H8.905a3.51 3.51 0 0 0-3.501 3.5v1.367a1.203 1.203 0 0 1-2.404 0V10.93a5.89 5.89 0 0 1 5.884-5.88h6.133V3.33c0-.394.207-.767.56-.953a1.13 1.13 0 0 1 1.118.041m1.922 9.282c0-.663.54-1.202 1.202-1.202.643 0 1.181.538 1.181 1.201v1.368c0 3.232-2.631 5.884-5.884 5.884H8.963v1.719c0 .394-.207.767-.56.953a1.1 1.1 0 0 1-.518.125 1 1 0 0 1-.58-.166L2.747 18.66a1.06 1.06 0 0 1-.497-.911c0-.372.186-.704.497-.911l4.558-2.922a1.09 1.09 0 0 1 1.119-.041c.352.186.559.56.559.953v1.74h6.133a3.51 3.51 0 0 0 3.501-3.5z" clip-rule="evenodd"/></svg>
